priv/static/svgs/icons_new/sport-nordic-combined.svg

<svg width="32" height="32" viewBox="0 0 32 32" fill="none" xmlns="http://www.w3.org/2000/svg">
<path d="M14.08 7.81482C15.4055 7.81482 16.48 6.73698 16.48 5.40741C16.48 4.07783 15.4055 3 14.08 3C12.7545 3 11.68 4.07783 11.68 5.40741C11.68 6.73698 12.7545 7.81482 14.08 7.81482ZM14.08 7.81482C14.8451 7.81482 15.5191 7.44792 15.9587 6.88843C17.0445 6.9751 18.088 7.36221 18.9491 8.0411L22.1824 10.5891H22.1776C23.2922 11.4683 23.5398 13.061 22.745 14.2378L22.1402 15.1333C21.6439 15.6312 20.8586 15.687 20.297 15.2643C19.7517 14.8541 19.577 14.1116 19.8813 13.5001L20.3152 12.6306L17.4352 10.7047L16.9552 15.5195L18.664 21.4118C18.8023 21.9656 18.7735 22.5472 18.5824 23.0845L16.9907 27.5546C16.8842 27.8531 16.696 28.0987 16.4599 28.2759C16.5059 27.6432 16.337 27.0047 15.953 26.4809L15.7811 26.2459L15.4989 26.3153C14.8951 26.4626 14.3795 26.8227 14.0109 27.3052C13.9687 27.0683 13.9735 26.8199 14.0483 26.5743L15.1744 22.8967C15.3981 22.1678 15.4 21.3887 15.1821 20.6588L14.0771 16.9639L14.849 20.447C14.9719 21.0016 14.9296 21.5804 14.7261 22.111L13.0749 26.4183C12.8944 26.8882 12.4941 27.2108 12.0304 27.3235C11.944 27.0259 11.824 26.737 11.6359 26.4799L11.464 26.245L11.1818 26.3143C10.9024 26.3827 10.649 26.5069 10.4109 26.6552C10.1997 26.3056 10.1287 25.8694 10.2602 25.4419L11.3517 21.8837C11.5658 21.1856 11.5783 20.4412 11.3863 19.7373L10.6816 17.7372C10.3917 16.9148 10.3216 16.0298 10.4771 15.1718L11.2 11.1852C11.2 11.1852 9.60738 14.6239 7.84002 14.5555C6.80418 14.5151 5.66274 13.529 4.8957 12.7201C4.3677 12.1626 4.37922 11.2863 4.92162 10.7422C5.47266 10.1895 6.36738 10.1895 6.91842 10.7422L7.84002 11.6667L9.3213 9.18895C9.98754 8.07673 11.0637 7.29962 12.2896 6.99629C12.7293 7.49414 13.3648 7.81482 14.08 7.81482ZM4.96 28.0371V12.7837M5.92 27.0741H4M27.8819 25.1482L19.84 15.037M28 23.7914L26.5293 25.0297M9.2915 28.012C9.5987 27.1636 10.3091 26.5261 11.1827 26.3133L11.4649 26.244L11.6368 26.479C12.1696 27.206 12.3049 28.1526 11.9968 29L9.29054 28.012H9.2915ZM13.6115 28.012C13.9187 27.1636 14.6291 26.5261 15.5027 26.3133L15.7849 26.244L15.9568 26.479C16.4896 27.206 16.6249 28.1526 16.3168 29L13.6105 28.012H13.6115Z" stroke="black" stroke-linecap="round"/>
</svg>

<svg width="32" height="32" viewBox="0 0 32 32" fill="none" xmlns="http://www.w3.org/2000/svg">
  <symbol id="item" viewBox="0 0 32 32" stroke-width="1" fill="none">
    <path d="M14.08 7.815c1.325 0 2.4-1.078 2.4-2.408A2.404 2.404 0 0 0 14.08 3a2.404 2.404 0 0 0-2.4 2.407 2.404 2.404 0 0 0 2.4 2.408Zm0 0c.765 0 1.44-.367 1.879-.927a5.524 5.524 0 0 1 2.99 1.153l3.233 2.548h-.004a2.714 2.714 0 0 1 .567 3.649l-.605.895a1.406 1.406 0 0 1-1.843.131 1.418 1.418 0 0 1-.416-1.764l.434-.87-2.88-1.925-.48 4.815 1.709 5.892c.138.554.11 1.135-.082 1.672l-1.591 4.47a1.55 1.55 0 0 1-.531.722 2.698 2.698 0 0 0-.507-1.795l-.172-.235-.282.07a2.678 2.678 0 0 0-1.488.99 1.555 1.555 0 0 1 .037-.732l1.126-3.677a3.863 3.863 0 0 0 .008-2.238l-1.105-3.695.772 3.483c.123.555.08 1.133-.123 1.664l-1.651 4.307c-.18.47-.58.793-1.045.905a2.666 2.666 0 0 0-.394-.843l-.172-.235-.282.07c-.28.068-.533.192-.771.34a1.49 1.49 0 0 1-.15-1.213l1.09-3.558a3.858 3.858 0 0 0 .035-2.147l-.704-2a5.025 5.025 0 0 1-.205-2.565l.723-3.987s-1.593 3.439-3.36 3.37c-1.036-.04-2.177-1.026-2.944-1.835a1.42 1.42 0 0 1 .026-1.978 1.41 1.41 0 0 1 1.996 0l.922.925 1.481-2.478a4.801 4.801 0 0 1 2.969-2.193c.44.498 1.075.819 1.79.819ZM4.96 28.037V12.784m.96 14.29H4m23.882-1.926L19.84 15.037M28 23.791l-1.47 1.239M9.29 28.012a2.69 2.69 0 0 1 1.892-1.699l.282-.069.172.235c.533.727.668 1.674.36 2.521l-2.706-.988h0Zm4.32 0a2.69 2.69 0 0 1 1.892-1.699l.282-.069.172.235c.533.727.668 1.674.36 2.521l-2.707-.988h.002Z" stroke="currentColor" stroke-linecap="round"/>
  </symbol>
</svg>
